frontend/public/svg/interface/gift.svg

<svg width="161" height="154" viewBox="0 0 161 154" fill="none" xmlns="http://www.w3.org/2000/svg">
<g clip-path="url(#clip0)">
<path d="M13.9653 26.3929C13.3454 26.4007 12.7254 26.3891 12.1055 26.3781C10.9378 26.3371 9.76879 26.3561 8.60306 26.4349C4.24676 26.7979 2.47252 28.6135 2.27301 32.9093C1.97374 39.3929 1.71523 45.9857 1.46519 52.3619L1.1867 59.4195C1.16791 59.8841 1.17111 60.3506 1.19508 60.8093C1.5086 66.7514 3.74024 69.1992 9.72176 70.1639C10.2316 70.2455 10.7491 70.3031 11.2692 70.3581C13.0383 70.5522 14.7127 70.7392 16.2382 71.9142C16.2777 72.7101 16.3245 73.5092 16.3679 74.3083C16.4787 76.2165 16.594 78.1907 16.6115 80.1286C16.6931 89.1674 16.7656 98.2062 16.8291 107.245C16.9042 117.237 16.9858 127.229 17.0739 137.221C17.0748 140.34 17.2411 143.457 17.5721 146.559C18.0754 150.852 19.3133 152.078 23.5912 152.525L25.146 152.69C29.2657 153.198 33.4084 153.499 37.5585 153.589C41.9111 153.609 46.2512 153.619 50.5788 153.62C61.9284 153.62 73.155 153.55 84.092 153.41C89.9673 153.335 95.9359 153.127 101.708 152.925C105.951 152.777 110.339 152.623 114.654 152.525C118.836 152.428 123.092 152.404 127.209 152.38C130.275 152.362 133.446 152.344 136.565 152.296C140.119 152.242 142.072 150.598 142.703 147.119C142.868 146.065 142.953 145 142.954 143.934C142.969 143.427 142.982 142.921 143.015 142.416C143.274 138.382 143.541 134.348 143.817 130.316C144.41 121.479 145.023 112.341 145.517 103.346C145.675 100.462 145.978 97.5183 146.271 94.6752C147.139 86.244 148.036 77.5339 145.415 68.7281C145.632 68.6809 145.841 68.6336 146.042 68.5884C146.744 68.4156 147.456 68.2855 148.174 68.2001C149.057 68.1166 149.968 68.0707 150.848 68.0286C152.152 67.9639 153.501 67.8992 154.825 67.7051C158.372 67.1875 160.401 64.9635 160.693 61.2785C160.74 60.4115 160.722 59.5422 160.639 58.6779L160.629 58.5291C160.051 50.3348 159.463 42.1416 158.874 33.8521L158.372 26.8148C158.361 26.6623 158.298 26.5183 158.193 26.4068C158.089 26.2954 157.949 26.2233 157.798 26.2028C157.404 26.1497 157.025 26.0913 156.657 26.0337C155.871 25.912 155.129 25.7975 154.369 25.7509C151.924 25.6016 149.478 25.4588 147.032 25.3225C142.701 25.0747 138.222 24.8192 133.824 24.5118C133.078 24.4103 132.351 24.2007 131.666 23.8894C131.51 23.8286 131.352 23.7672 131.194 23.7071C131.392 23.2748 131.587 22.8627 131.777 22.4661C132.341 21.3419 132.83 20.1817 133.24 18.9932C133.855 17.1872 134.099 15.2759 133.958 13.3737C133.816 11.4715 133.292 9.61755 132.418 7.92206C131.488 6.22992 130.227 4.742 128.709 3.54746C127.192 2.35292 125.448 1.47617 123.584 0.969338C120.508 0.0439655 117.257 -0.145334 114.094 0.416744C105.064 2.00139 96.9276 6.12259 89.2191 13.0176C88.2474 13.8873 87.2758 14.7957 86.2549 15.7572C85.931 16.0633 85.5942 16.3783 85.2463 16.7032C85.0053 16.3149 84.7767 15.9475 84.5564 15.5936C83.8562 14.4638 83.2512 13.4886 82.6079 12.5232C80.6044 9.44497 77.8584 6.91879 74.6228 5.17648C65.7671 0.465246 56.2985 0.0518385 46.4808 3.94713C43.6793 5.10813 41.2785 7.0614 39.5731 9.56688C35.9624 14.6256 36.1081 18.8347 40.0615 23.6404C40.6022 24.2666 41.1769 24.8624 41.7832 25.4255C41.9724 25.6099 42.1791 25.8137 42.4078 26.035L37.0124 26.1035C28.8563 26.2057 21.4108 26.3036 13.9653 26.3929ZM27.2699 78.0781C27.1857 76.5834 27.051 75.1016 26.9091 73.5403C26.8625 73.0324 26.816 72.516 26.7698 71.9912C26.9453 71.9589 27.1138 71.9265 27.2764 71.8948C27.8156 71.768 28.3657 71.6936 28.9192 71.6703C42.4641 71.6515 56.0103 71.6515 70.0489 71.6528H78.1409C78.1376 75.3741 78.1046 79.0539 78.0729 82.6192C77.9964 91.2594 77.9239 99.4194 78.2432 107.673C78.5626 115.945 79.2622 124.015 80.0026 132.56C80.3025 136.023 80.6121 139.599 80.892 143.165C80.5474 143.265 80.2196 143.368 79.9054 143.467C79.1566 143.75 78.3715 143.924 77.5734 143.984C62.42 144.096 47.4888 144.144 29.7327 144.178H29.7249C29.1714 144.153 28.6218 144.074 28.0841 143.94C27.8801 143.896 27.667 143.852 27.4416 143.81C27.4086 143.469 27.3735 143.133 27.3385 142.8C27.2166 141.822 27.1487 140.838 27.1351 139.852C27.1917 130.616 27.2565 121.38 27.3295 112.144C27.3951 103.234 27.4571 94.3245 27.5154 85.4145C27.5297 82.9278 27.4 80.4295 27.2705 78.0781H27.2699ZM66.5289 35.6309C67.713 35.6212 68.8984 35.5831 70.0806 35.5449C72.3653 35.4725 74.7213 35.3968 76.9801 35.5449C77.7237 40.2083 78.0586 53.6179 77.5838 60.0975C74.2886 60.9096 70.81 60.8552 67.4403 60.7983C65.6408 60.7705 63.7784 60.7394 61.9452 60.8391C56.9515 61.1089 51.8535 61.1465 46.9233 61.1834L42.9532 61.2169C38.3294 61.2602 33.5475 61.3056 28.8661 61.0915C27.5919 61.0332 26.2912 61.0117 25.0338 60.9916C20.9833 60.9269 16.7993 60.8579 12.4618 59.5541L11.3768 36.0255C13.7352 35.7968 16.112 35.8364 18.4615 36.1433C19.6534 36.2559 20.886 36.3732 22.1019 36.4062C25.6594 36.502 29.3512 36.5523 33.3887 36.5588C36.9645 36.5633 40.811 36.5531 44.6821 36.4334C46.5775 36.3745 48.4988 36.26 50.3559 36.15C51.9708 36.0536 53.6407 35.9556 55.2789 35.8909C59.0691 35.7479 62.8533 35.6613 66.5289 35.6315V35.6309ZM50.6169 25.2539L46.5095 19.5205C46.8333 15.9849 48.548 13.9338 52.0512 12.8856C57.2333 11.3326 62.0133 11.3053 66.6533 12.7962C71.9171 14.4882 75.2771 18.0373 77.7684 24.5933L50.6169 25.2539ZM90.3637 23.7886C96.2908 16.8719 104.393 12.1696 113.343 10.4519C116.571 9.78863 120.24 9.57186 123.072 12.9443C123.694 19.2603 123.692 19.4647 121.892 23.5289C121.708 23.5599 121.52 23.5938 121.329 23.6293C120.645 23.7755 119.95 23.8646 119.251 23.8954C110.16 24.0248 100.595 24.1242 90.8139 24.1902C90.7161 24.1163 90.6235 24.0361 90.5367 23.9497C90.4803 23.896 90.422 23.8416 90.3637 23.7892V23.7886ZM87.3438 107.324C87.5692 99.0609 87.5174 90.9682 87.463 82.3998C87.4397 78.8721 87.4176 75.321 87.415 71.7369C94.0223 70.9456 133.713 69.1293 140.326 69.3066C140.197 69.9155 140.063 70.5237 139.929 71.13C139.514 73.0026 139.087 74.9379 138.839 76.8772C137.936 83.9948 137.235 89.9736 136.742 96.0211C136.172 103.036 135.727 110.175 135.297 117.08C135.171 119.109 135.043 121.139 134.914 123.169C134.731 126.049 134.557 128.93 134.392 131.811C134.198 135.111 134.004 138.407 133.789 141.703C133.73 142.066 133.616 142.418 133.448 142.746C133.398 142.864 133.346 142.983 133.295 143.109H85.4814C85.6758 139.563 85.8882 136.042 86.0994 132.539C86.5988 124.263 87.1151 115.705 87.3438 107.325V107.324ZM149.252 32.2648C149.299 32.3329 149.33 32.4108 149.343 32.4926C149.165 40.0276 148.979 47.5629 148.786 55.3179L148.738 57.2726C148.391 57.3412 148.051 57.4128 147.715 57.484C146.745 57.7143 145.759 57.8765 144.766 57.9693C125.98 59.2433 107.1 59.9189 88.638 59.9752C87.6975 54.7748 87.4105 41.4195 88.1198 35.5488C91.9676 34.6914 96.0227 34.602 99.954 34.5134C101.02 34.4901 102.086 34.4669 103.149 34.4281C105.584 34.3421 108.067 34.3276 110.469 34.314C113.07 34.2992 115.76 34.2837 118.406 34.1763C123.742 33.9608 128.973 33.5647 134.308 33.1409C137.82 32.864 141.33 32.5249 144.723 32.1969C146.094 32.0649 147.445 31.9357 148.777 31.8089C148.861 31.8872 148.933 31.9532 148.998 32.0108C149.089 32.0883 149.174 32.1725 149.252 32.2629V32.2648Z" fill="black"/>
</g>
<defs>
<clipPath id="clip0">
<rect width="160" height="154" fill="white" transform="translate(0.777344)"/>
</clipPath>
</defs>
</svg>

<svg xmlns="http://www.w3.org/2000/svg" width="161" height="154" fill="none" viewBox="0 0 161 154"><g clip-path="url(#a)"><path fill="#000" d="M13.965 26.393c-.62.008-1.24-.004-1.86-.015a34 34 0 0 0-3.502.057c-4.356.363-6.13 2.178-6.33 6.474-.3 6.484-.558 13.077-.808 19.453l-.278 7.057c-.02.465-.016.932.008 1.39.314 5.942 2.545 8.39 8.527 9.355.51.082 1.027.14 1.547.194 1.77.194 3.444.381 4.97 1.556.039.796.085 1.595.129 2.394.11 1.908.226 3.883.244 5.82q.122 13.56.217 27.117.113 14.988.245 29.976c0 3.119.167 6.236.498 9.338.503 4.293 1.741 5.519 6.02 5.966l1.554.165c4.12.508 8.262.809 12.413.899q6.528.03 13.02.031c11.35 0 22.576-.07 33.513-.21 5.875-.075 11.844-.283 17.616-.485 4.243-.148 8.631-.302 12.946-.4 4.182-.097 8.438-.121 12.555-.145 3.066-.018 6.237-.036 9.356-.084 3.554-.054 5.507-1.698 6.138-5.177.165-1.054.25-2.119.251-3.185.015-.507.028-1.013.061-1.518q.388-6.052.802-12.1c.593-8.837 1.206-17.975 1.7-26.97.158-2.884.461-5.828.754-8.67.868-8.432 1.765-17.142-.856-25.948q.325-.07.627-.14a18 18 0 0 1 2.132-.388c.883-.083 1.794-.13 2.674-.171 1.304-.065 2.653-.13 3.977-.324 3.547-.517 5.576-2.742 5.868-6.426a17.4 17.4 0 0 0-.054-2.601l-.01-.149c-.578-8.194-1.166-16.387-1.755-24.677l-.502-7.037a.664.664 0 0 0-.574-.612 54 54 0 0 1-1.141-.17c-.786-.121-1.528-.236-2.288-.282q-3.668-.224-7.337-.428c-4.331-.248-8.81-.504-13.208-.811a7.7 7.7 0 0 1-2.158-.623l-.472-.182q.297-.647.583-1.24a28 28 0 0 0 1.463-3.474 14.18 14.18 0 0 0-.822-11.07 14.38 14.38 0 0 0-8.834-6.954 20.5 20.5 0 0 0-9.49-.552c-9.03 1.584-17.166 5.706-24.875 12.6a162 162 0 0 0-2.964 2.74q-.486.459-1.009.946c-.24-.388-.47-.755-.69-1.11-.7-1.13-1.305-2.104-1.948-3.07a21.94 21.94 0 0 0-7.985-7.347C65.767.466 56.298.052 46.48 3.947a15.56 15.56 0 0 0-6.908 5.62c-3.61 5.059-3.465 9.268.489 14.073q.811.94 1.721 1.785.283.278.625.61l-5.396.069c-8.156.102-15.601.2-23.047.289M27.27 78.078c-.084-1.495-.219-2.976-.36-4.538q-.07-.762-.14-1.549.263-.048.506-.096a9 9 0 0 1 1.643-.225 26591 26591 0 0 1 41.13-.017h8.092c-.003 3.721-.036 7.4-.068 10.966-.077 8.64-.15 16.8.17 25.054.32 8.272 1.02 16.342 1.76 24.887.3 3.463.61 7.039.889 10.605q-.516.152-.987.302a8.4 8.4 0 0 1-2.332.517c-15.153.112-30.084.16-47.84.194h-.008a8.3 8.3 0 0 1-1.64-.238 23 23 0 0 0-.643-.13q-.05-.511-.104-1.01a27 27 0 0 1-.203-2.948q.085-13.854.194-27.708.099-13.365.186-26.73c.015-2.486-.115-4.984-.245-7.336m39.259-42.447c1.184-.01 2.37-.048 3.552-.086 2.284-.073 4.64-.148 6.9 0 .743 4.663 1.078 18.073.603 24.552-3.295.813-6.774.758-10.144.701-1.8-.028-3.662-.059-5.495.041-4.993.27-10.092.308-15.022.344l-3.97.034c-4.624.043-9.406.089-14.087-.125-1.274-.059-2.575-.08-3.832-.1-4.05-.065-8.235-.134-12.572-1.438l-1.085-23.528a31.3 31.3 0 0 1 7.085.117c1.191.113 2.424.23 3.64.263 3.557.096 7.25.146 11.287.153 3.575.004 7.422-.006 11.293-.126 1.895-.059 3.817-.173 5.674-.283 1.615-.096 3.285-.194 4.923-.26 3.79-.142 7.574-.229 11.25-.258zM50.617 25.254 46.51 19.52c.323-3.535 2.038-5.586 5.541-6.634 5.182-1.553 9.962-1.58 14.602-.09 5.264 1.692 8.624 5.241 11.115 11.797zm39.747-1.465a40.25 40.25 0 0 1 22.979-13.337c3.228-.663 6.897-.88 9.729 2.492.622 6.316.62 6.52-1.18 10.585q-.276.046-.563.1-1.028.22-2.078.266c-9.091.13-18.656.23-28.437.295a3 3 0 0 1-.277-.24zm-3.02 83.535c.225-8.263.173-16.356.119-24.924-.023-3.528-.045-7.079-.048-10.663 6.607-.791 46.298-2.608 52.911-2.43q-.195.913-.397 1.823c-.415 1.873-.842 3.808-1.09 5.747-.903 7.118-1.604 13.097-2.097 19.144-.57 7.015-1.015 14.154-1.445 21.059q-.19 3.044-.383 6.089-.274 4.32-.522 8.642c-.194 3.3-.388 6.596-.603 9.892a3.5 3.5 0 0 1-.341 1.043q-.076.175-.153.363H85.481c.195-3.546.407-7.067.618-10.57.5-8.276 1.016-16.834 1.245-25.214zm61.908-75.06a.55.55 0 0 1 .091.229c-.178 7.535-.364 15.07-.557 22.825l-.048 1.955q-.52.103-1.023.211c-.97.23-1.956.392-2.949.485a873 873 0 0 1-56.128 2.006c-.94-5.2-1.228-18.556-.518-24.426 3.848-.858 7.903-.947 11.834-1.036 1.066-.023 2.132-.046 3.195-.085 2.435-.086 4.918-.1 7.32-.114 2.601-.015 5.291-.03 7.937-.138 5.336-.215 10.567-.611 15.902-1.035 3.512-.277 7.022-.616 10.415-.944l4.054-.388q.125.116.221.202.137.115.254.252z"/></g><defs><clipPath id="a"><path fill="#fff" d="M.777 0h160v154h-160z"/></clipPath></defs></svg>
